assets/img/braze_icons/code-circle-02.svg

<svg fill="none" height="24" viewBox="0 0 24 24" width="24" xmlns="http://www.w3.org/2000/svg"><path clip-rule="evenodd" d="m12 1c-6.07513 0-11 4.92487-11 11 0 6.0751 4.92487 11 11 11 6.0751 0 11-4.9249 11-11 0-6.07513-4.9249-11-11-11zm-1.2929 6.70711c.3905-.39053.3905-1.02369 0-1.41422-.3905-.39052-1.02368-.39052-1.41421 0l-3 3c-.39052.39053-.39052 1.02371 0 1.41421l3 3c.39053.3905 1.02371.3905 1.41421 0s.3905-1.0237 0-1.4142l-2.29289-2.2929zm4 2.58579c-.3905-.39053-1.0237-.39053-1.4142 0-.3905.3905-.3905 1.0237 0 1.4142l2.2929 2.2929-2.2929 2.2929c-.3905.3905-.3905 1.0237 0 1.4142s1.0237.3905 1.4142 0l3-3c.3905-.3905.3905-1.0237 0-1.4142z" fill="#801ed7" fill-rule="evenodd"/></svg>

<svg width="24" height="24" viewBox="0 0 24 24" fill="none" xmlns="http://www.w3.org/2000/svg">
<path fill-rule="evenodd" clip-rule="evenodd" d="M12 1C5.92487 1 1 5.92487 1 12C1 18.0751 5.92487 23 12 23C18.0751 23 23 18.0751 23 12C23 5.92487 18.0751 1 12 1ZM10.7071 7.70711C11.0976 7.31658 11.0976 6.68342 10.7071 6.29289C10.3166 5.90237 9.68342 5.90237 9.29289 6.29289L6.29289 9.29289C5.90237 9.68342 5.90237 10.3166 6.29289 10.7071L9.29289 13.7071C9.68342 14.0976 10.3166 14.0976 10.7071 13.7071C11.0976 13.3166 11.0976 12.6834 10.7071 12.2929L8.41421 10L10.7071 7.70711ZM14.7071 10.2929C14.3166 9.90237 13.6834 9.90237 13.2929 10.2929C12.9024 10.6834 12.9024 11.3166 13.2929 11.7071L15.5858 14L13.2929 16.2929C12.9024 16.6834 12.9024 17.3166 13.2929 17.7071C13.6834 18.0976 14.3166 18.0976 14.7071 17.7071L17.7071 14.7071C18.0976 14.3166 18.0976 13.6834 17.7071 13.2929L14.7071 10.2929Z" fill="#801ED7"/>
</svg>
